X:1
T:James Gibb editions
T:Faction that ever dwells - Dowland
T:#
%%score [ 1 2 3 4 ]
L:1/8
Q:1/4=120
M:4/4
K:C
V:1 treble nm="Soprano" snm="S"
V:2 treble nm="Alto" snm="A"
V:3 treble-8 nm="Tenor" snm="T"
V:4 bass nm="Bass" snm="B"
V:1
 G4 G2"^Faction that ever dwells" G2 | G4 A4 | B8 | z4 G4 | G4 G4 | %5
w: Fac- tion that|e- ver|dwells|In|court where|
w: For- tune swears,|weak- est|hearts|The|book of|
w: This dis- cord|it be-|got|A-|theist that|
w: So to the|wood went|I|With|love to|
w: My saint is|dear to|me,|And|Joan her-|
"^John Dowland\n(1563-1626)" A4 B4 | c8 |[M:4/4] z4 d4 | B8 | G8 | (A2 A6) | A4 A2 G2 | ^F4 E4 | %13
w: wit ex-|cels,|hath|set|de-|fi- ance;|For- tune and|love hath|
w: Cu- pid's|arts|Turn|with|her|wheel; *|Sen- ses them-|selves shall|
w: ho- nour|not|Na-|ture|thought|good, *|For- tune should|e- ver|
w: live and|die|For-|tune|for-|lorn. *|Ex- per- ience|of my|
w: self is|she|Joan|fair|and|true, *|Joan that doth|e- ver|
 D8 | z4 D4 | G4 G4 | A4 A4 | B8 | z4 c4 | A6 A2 | (G2 G6) :| %21
w: sworn,|That|they were|ne- ver|born|of|one al-|li- ance.|
w: prove|Ven-|ture her|place in|love|Ask|them that|feel. *|
w: dwell|In|court where|wits ex-|cel|Love|keep the|wood. *|
w: youth|Made|me think|hum- ble|truth|in|de- sert|born. *|
w: move|Pas-|sions of|love with|love,|For-|tune a-|dieu. *|
V:2
 D4 D2 D2 | D3 (G ^F4) | G8 | z4 D4 | D4 D4 | F4 F4 | E8 |[M:4/4] z4 G4 | G8- | G4 E4 | (^F2 F6) | %11
w: Fac- tion that|e- ver *|dwells|In|court where|wit ex-|cels,|hath|set|* de-|fi- ance;|
w: For- tune swears,|weak- est *|hearts|The|book of|Cu- pid's|arts|Turn|with|* her|wheel; *|
w: This dis- cord|it be\- *|got|A-|theist that|ho- nour|not|Na-|ture|* thought|good, *|
w: So to the|wood went *|I|With|love to|live and|die|For-|tune|* for-|lorn. *|
w: My saint is|dear to *|me,|And|Joan her-|self is|she|Joan|fair|* and|true, *|
 F4 D2 B2 | A6 G2 | ^F8 | z4 ^F4 | E2 ^F2 G4- | G2 (^FE !courtesy!^F4) | G8 | z4 E4 | D6 C2 | %20
w: For- tune and|love hath|sworn,|That|they were ne\-|* ver * *|born|of|one al-|
w: Sen- ses them-|selves shall|prove|Ven-|ture her place|* in * *|love|Ask|them that|
w: For- tune should|e- ver|dwell|In|court where wits|* ex\- * *|cel|Love|keep the|
w: Ex- per- ience|of my|youth|Made|me think hum\-|* ble * *|truth|in|de- sert|
w: Joan that doth|e- ver|move|Pas-|sions of love|* with * *|love,|For-|tune a-|
 (B,2 B,6) :| %21
w: li- ance.|
w: feel. *|
w: wood. *|
w: born. *|
w: dieu. *|
V:3
 B4 B2 B2 | B4 d4 | d8 | z4 B4 | B4 B4 | c4 d4 | A8 |[M:4/4][K:treble-8] z4 B4 | d8- | d4 ^c4 | %10
w: Fac- tion that|e- ver|dwells|In|court where|wit ex-|cels,|hath|set|* de-|
w: For- tune swears,|weak- est|hearts|The|book of|Cu- pid's|arts|Turn|with|* her|
w: This dis- cord|it be-|got|A-|theist that|ho- nour|not|Na-|ture|* thought|
w: So to the|wood went|I|With|love to|live and|die|For-|tune|* for-|
w: My saint is|dear to|me,|And|Joan her-|self is|she|Joan|fair|* and|
 (A2 A6) | d4 A2 B2 | A2 (d2 ^c4) | d8 | z4 A4 | c4 d4 | e6 (dc) | d8 | z4 G4 | G4 ^F4 | (G2 G6) :| %21
w: fi- ance;|For- tune and|love hath *|sworn,|That|they were|ne- ver *|born|of|one al-|li- ance.|
w: wheel; *|Sen- ses them-|selves shall *|prove|Ven-|ture her|place in *|love|Ask|them that|feel. *|
w: good, *|For- tune should|e- ver *|dwell|In|court where|wits ex\- *|cel|Love|keep the|wood. *|
w: lorn. *|Ex- per- ience|of my *|youth|Made|me think|hum- ble *|truth|in|de- sert|born. *|
w: true, *|Joan that doth|e- ver *|move|Pas-|sions of|love with *|love,|For-|tune a-|dieu. *|
V:4
 G,4 G,2 G,2 | G,4 D,4 | G,,8 | z4 G,4 | G,4 G,4 | F,4 D,4 | C,8 |[M:4/4] z4 G,,4 | G,8 | E,8 | %10
w: Fac- tion that|e- ver|dwells|In|court where|wit ex-|cels,|hath|set|de-|
w: For- tune swears,|weak- est|hearts|The|book of|Cu- pid's|arts|Turn|with|her|
w: This dis- cord|it be-|got|A-|theist that|ho- nour|not|Na-|ture|thought|
w: So to the|wood went|I|With|love to|live and|die|For-|tune|for-|
w: My saint is|dear to|me,|And|Joan her-|self is|she|Joan|fair|and|
 (D,2 D,6) | D,4 D,2 D,2 | D,4 A,,4 | D,8 | z4 D,4 | C,4 B,,4 | A,,4 A,,4 | G,,8 | z4 C,4 | %19
w: fi- ance;|For- tune and|love hath|sworn,|That|they were|ne- ver|born|of|
w: wheel; *|Sen- ses them-|selves shall|prove|Ven-|ture her|place in|love|Ask|
w: good, *|For- tune should|e- ver|dwell|In|court where|wits ex-|cel|Love|
w: lorn. *|Ex- per- ience|of my|youth|Made|me think|hum- ble|truth|in|
w: true, *|Joan that doth|e- ver|move|Pas-|sions of|love with|love,|For-|
 D,6 D,2 | (G,,2 G,,6) :| %21
w: one al-|li- ance.|
w: them that|feel. *|
w: keep the|wood. *|
w: de- sert|born. *|
w: tune a-|dieu. *|

